assets/images/common/social-home_white.svg

<svg width="24" height="24" viewBox="0 0 24 24" fill="none" xmlns="http://www.w3.org/2000/svg">
<path d="M5.14314 19.7143H8.57171V14C8.57171 13.6762 8.68142 13.4049 8.90085 13.1863C9.12028 12.9676 9.39152 12.8579 9.71456 12.8571H14.286C14.6098 12.8571 14.8814 12.9669 15.1008 13.1863C15.3203 13.4057 15.4296 13.6769 15.4288 14V19.7143H18.8574V9.42857L12.0003 4.28571L5.14314 9.42857V19.7143ZM2.85742 19.7143V9.42857C2.85742 9.06666 2.93856 8.72381 3.10085 8.4C3.26314 8.07619 3.48676 7.80952 3.77171 7.6L10.6288 2.45714C11.0288 2.15238 11.486 2 12.0003 2C12.5146 2 12.9717 2.15238 13.3717 2.45714L20.2288 7.6C20.5146 7.80952 20.7386 8.07619 20.9008 8.4C21.0631 8.72381 21.1439 9.06666 21.1431 9.42857V19.7143C21.1431 20.3429 20.9191 20.8811 20.4711 21.3291C20.0231 21.7771 19.4852 22.0008 18.8574 22H14.286C13.9622 22 13.6909 21.8903 13.4723 21.6709C13.2536 21.4514 13.1439 21.1802 13.1431 20.8571V15.1429H10.8574V20.8571C10.8574 21.1809 10.7477 21.4526 10.5283 21.672C10.3088 21.8914 10.0376 22.0008 9.71456 22H5.14314C4.51456 22 3.97666 21.7764 3.52942 21.3291C3.08218 20.8819 2.85818 20.3436 2.85742 19.7143Z" fill="#FEFDFD"/>
</svg>

<svg xmlns="http://www.w3.org/2000/svg" width="24" height="24" fill="none"><path fill="#FEFDFD" d="M5.143 19.714h3.429V14q0-.486.329-.814t.814-.329h4.571q.486 0 .815.33.33.329.328.813v5.714h3.428V9.43L12 4.286 5.143 9.429zm-2.286 0V9.43q0-.543.244-1.029t.67-.8l6.858-5.143Q11.229 2 12 2q.772 0 1.372.457L20.229 7.6q.429.315.672.8t.242 1.029v10.285q0 .943-.672 1.615a2.2 2.2 0 0 1-1.614.671h-4.571q-.486 0-.814-.33a1.11 1.11 0 0 1-.329-.813v-5.714h-2.286v5.714q0 .486-.329.815-.33.33-.813.328H5.143a2.2 2.2 0 0 1-1.614-.67 2.2 2.2 0 0 1-.672-1.616"/></svg>
